usr/share/icons/elementary-xfce/actions/32/view-refresh.svg

<?xml version="1.0" encoding="UTF-8" standalone="no"?>
<!-- Created with Inkscape (http://www.inkscape.org/) -->

<svg
   xmlns:dc="http://purl.org/dc/elements/1.1/"
   xmlns:cc="http://creativecommons.org/ns#"
   xmlns:rdf="http://www.w3.org/1999/02/22-rdf-syntax-ns#"
   xmlns:svg="http://www.w3.org/2000/svg"
   xmlns="http://www.w3.org/2000/svg"
   xmlns:xlink="http://www.w3.org/1999/xlink"
   xmlns:sodipodi="http://sodipodi.sourceforge.net/DTD/sodipodi-0.dtd"
   xmlns:inkscape="http://www.inkscape.org/namespaces/inkscape"
   version="1.0"
   width="32"
   height="32"
   id="svg3286"
   inkscape:version="0.48.3.1 r9886"
   sodipodi:docname="view-refresh.svg">
  <metadata
     id="metadata37">
    <rdf:RDF>
      <cc:Work
         rdf:about="">
        <dc:format>image/svg+xml</dc:format>
        <dc:type
           rdf:resource="http://purl.org/dc/dcmitype/StillImage" />
      </cc:Work>
    </rdf:RDF>
  </metadata>
  <sodipodi:namedview
     pagecolor="#ffffff"
     bordercolor="#666666"
     borderopacity="1"
     objecttolerance="10"
     gridtolerance="10"
     guidetolerance="10"
     inkscape:pageopacity="0"
     inkscape:pageshadow="2"
     inkscape:window-width="1406"
     inkscape:window-height="995"
     id="namedview35"
     showgrid="false"
     inkscape:zoom="16"
     inkscape:cx="15.573216"
     inkscape:cy="12.448687"
     inkscape:window-x="326"
     inkscape:window-y="112"
     inkscape:window-maximized="0"
     inkscape:current-layer="svg3286" />
  <defs
     id="defs3288">
    <linearGradient
       id="linearGradient8838">
      <stop
         id="stop8840"
         style="stop-color:#000000;stop-opacity:1"
         offset="0" />
      <stop
         id="stop8842"
         style="stop-color:#000000;stop-opacity:0"
         offset="1" />
    </linearGradient>
    <radialGradient
       cx="62.625"
       cy="4.625"
       r="10.625"
       fx="62.625"
       fy="4.625"
       id="radialGradient2457"
       xlink:href="#linearGradient8838"
       gradientUnits="userSpaceOnUse"
       gradientTransform="matrix(1,0,0,0.341176,0,3.047059)" />
    <linearGradient
       id="linearGradient3533">
      <stop
         id="stop3535"
         style="stop-color:#b0cce6;stop-opacity:1"
         offset="0" />
      <stop
         id="stop3545"
         style="stop-color:#83acd5;stop-opacity:1"
         offset="1" />
    </linearGradient>
    <linearGradient
       x1="15.372947"
       y1="5.0471625"
       x2="15.372947"
       y2="22.599676"
       id="linearGradient2514"
       xlink:href="#linearGradient3533"
       gradientUnits="userSpaceOnUse"
       gradientTransform="matrix(0.6581432,0,0,0.6456688,-0.2105253,1.4174878)" />
    <linearGradient
       id="linearGradient3266">
      <stop
         id="stop3268"
         style="stop-color:#387ab8;stop-opacity:1"
         offset="0" />
      <stop
         id="stop3270"
         style="stop-color:#387ab8;stop-opacity:0"
         offset="1" />
    </linearGradient>
    <linearGradient
       x1="33.686768"
       y1="35.773647"
       x2="37.039948"
       y2="29.856804"
       id="linearGradient2511"
       xlink:href="#linearGradient3266"
       gradientUnits="userSpaceOnUse"
       gradientTransform="matrix(0.6896129,0,0,0.6765422,-0.550714,-0.540855)" />
    <linearGradient
       id="linearGradient3276">
      <stop
         id="stop3278"
         style="stop-color:#83acd5;stop-opacity:1"
         offset="0" />
      <stop
         id="stop3280"
         style="stop-color:#83acd5;stop-opacity:0"
         offset="1" />
    </linearGradient>
    <linearGradient
       x1="31.226292"
       y1="34.600941"
       x2="34.96563"
       y2="26.842505"
       id="linearGradient2509"
       xlink:href="#linearGradient3276"
       gradientUnits="userSpaceOnUse"
       gradientTransform="matrix(0.6896129,0,0,0.6765422,-0.550714,-0.540855)" />
    <linearGradient
       id="linearGradient4873">
      <stop
         id="stop4875"
         style="stop-color:#ffffff;stop-opacity:1"
         offset="0" />
      <stop
         id="stop4877"
         style="stop-color:#ffffff;stop-opacity:0"
         offset="1" />
    </linearGradient>
    <linearGradient
       x1="21.628975"
       y1="2.1102102"
       x2="22.245434"
       y2="43.366352"
       id="linearGradient2506"
       xlink:href="#linearGradient4873"
       gradientUnits="userSpaceOnUse"
       gradientTransform="matrix(0.6581432,0,0,0.6456688,-0.2105253,1.4174878)" />
    <linearGradient
       id="linearGradient3319">
      <stop
         id="stop3321"
         style="stop-color:#ffffff;stop-opacity:0"
         offset="0" />
      <stop
         id="stop3323"
         style="stop-color:#ffffff;stop-opacity:0.14383562"
         offset="0.57424062" />
      <stop
         id="stop3325"
         style="stop-color:#ffffff;stop-opacity:0"
         offset="1" />
    </linearGradient>
    <linearGradient
       x1="33.386703"
       y1="41.887085"
       x2="39.686337"
       y2="28.50532"
       id="linearGradient2503"
       xlink:href="#linearGradient3319"
       gradientUnits="userSpaceOnUse"
       gradientTransform="matrix(0.6581432,0,0,0.6456688,-0.2105253,1.4174878)" />
    <linearGradient
       inkscape:collect="always"
       xlink:href="#linearGradient3319"
       id="linearGradient3015"
       gradientUnits="userSpaceOnUse"
       gradientTransform="matrix(0.64153129,0,0,0.64521852,0.51666046,1.4439647)"
       x1="23.448067"
       y1="43.558826"
       x2="39.686337"
       y2="28.50532" />
    <linearGradient
       inkscape:collect="always"
       xlink:href="#linearGradient4873"
       id="linearGradient3018"
       gradientUnits="userSpaceOnUse"
       gradientTransform="matrix(0.6581432,0,0,0.6456688,-0.2105253,1.4174878)"
       x1="21.628975"
       y1="2.1102102"
       x2="22.245434"
       y2="43.366352" />
    <linearGradient
       inkscape:collect="always"
       xlink:href="#linearGradient3276"
       id="linearGradient3021"
       gradientUnits="userSpaceOnUse"
       gradientTransform="matrix(0.6896129,0,0,0.6765422,-0.550714,-0.540855)"
       x1="31.226292"
       y1="34.600941"
       x2="34.96563"
       y2="26.842505" />
    <linearGradient
       inkscape:collect="always"
       xlink:href="#linearGradient3266"
       id="linearGradient3023"
       gradientUnits="userSpaceOnUse"
       gradientTransform="matrix(0.6896129,0,0,0.6765422,-0.550714,-0.540855)"
       x1="34.502441"
       y1="34.018398"
       x2="37.039948"
       y2="29.856804" />
    <linearGradient
       inkscape:collect="always"
       xlink:href="#linearGradient3533"
       id="linearGradient3026"
       gradientUnits="userSpaceOnUse"
       gradientTransform="matrix(0.6581432,0,0,0.6456688,-0.2105253,1.4174878)"
       x1="15.372947"
       y1="5.0471625"
       x2="15.372947"
       y2="22.599676" />
    <radialGradient
       inkscape:collect="always"
       xlink:href="#linearGradient8838"
       id="radialGradient3029"
       gradientUnits="userSpaceOnUse"
       gradientTransform="matrix(1.5058705,0,0,0.6084209,-78.30514,22.555752)"
       cx="62.625"
       cy="4.625"
       fx="62.625"
       fy="4.625"
       r="10.625" />
  </defs>
  <path
     inkscape:connector-curvature="0"
     style="opacity:0.3;fill:url(#radialGradient3029);fill-opacity:1;fill-rule:evenodd;stroke:none;stroke-width:0.99999988;marker:none;visibility:visible;display:inline;overflow:visible"
     id="path8836"
     d="m 31.999874,25.369702 a 15.999874,6.464481 0 0 1 -31.999748,0 15.999874,6.464481 0 1 1 31.999748,0 z" />
  <path
     inkscape:connector-curvature="0"
     style="fill:url(#linearGradient3026);fill-opacity:1;stroke:#387ab8;stroke-width:1;stroke-linecap:butt;stroke-linejoin:round;stroke-miterlimit:4;stroke-opacity:1;stroke-dasharray:none"
     id="path3372"
     d="m 15.881612,22.347698 c -0.214059,-0.0023 -0.425748,-0.01718 -0.634499,-0.04384 -3.083176,-0.393802 -5.525315,-3.36065 -5.4903619,-6.448548 0.03732,-3.296968 3.0639419,-6.1326256 6.4395669,-6.0961742 1.630183,0.017602 3.209662,0.5313102 4.380471,1.6393472 L 17.539557,14.5 l 11.046409,0 0,-11.0469943 -2.911459,2.8456629 C 23.117265,3.8333529 20.161226,2.5415734 16.387061,2.5008198 8.7092155,2.4179123 2.5857595,8.5538313 2.500874,16.052778 2.4159888,23.551723 8.5251494,29.417095 16.202995,29.5"
     sodipodi:nodetypes="cssscccccssc" />
  <path
     inkscape:connector-curvature="0"
     style="fill:url(#linearGradient3021);fill-opacity:1;stroke:url(#linearGradient3023);stroke-width:1;stroke-linecap:butt;stroke-linejoin:miter;stroke-miterlimit:4;stroke-opacity:1;stroke-dasharray:none"
     id="path3453"
     d="m 15.910193,29.494839 c 6.420378,0.06933 13.601342,-4.793518 13.589788,-13.206109 l -6.798986,-0.05192 c -0.125169,3.431737 -3.792376,6.239753 -6.840756,6.111963"
     sodipodi:nodetypes="cccc" />
  <path
     inkscape:connector-curvature="0"
     style="opacity:0.4;fill:none;stroke:url(#linearGradient3018);stroke-width:1.19300008;stroke-linecap:butt;stroke-linejoin:miter;stroke-miterlimit:4;stroke-opacity:1;stroke-dasharray:none"
     id="path3370"
     d="m 23.782386,17.566224 c -1.760565,4.34818 -5.102396,5.819092 -7.90134,5.857791 -4.679075,0.0647 -7.1587826,-4.589023 -7.2556304,-7.179899 -0.1628018,-4.35528 3.8856164,-7.6678336 7.6243644,-7.5614147 3.124638,0.088939 4.444827,1.156126 5.817936,2.7277367 L 20.141624,13.40035 27.5,13.414079 27.5,6 25.65582,7.7650799 C 23.213195,5.0921295 20.42198,3.614564 16.601246,3.5770554 9.2928753,3.5053085 3.6908253,8.9551927 3.6343504,16.12502 c 0.1720457,7.723994 6.6760666,12.213545 11.8578986,12.208933 10.090779,-0.009 12.254442,-8.098627 12.492099,-8.09355"
     sodipodi:nodetypes="cssscccccscsc" />
</svg>

<?xml version="1.0" encoding="UTF-8" standalone="no"?>
<!-- Created with Inkscape (http://www.inkscape.org/) -->
<svg
   xmlns:svg="http://www.w3.org/2000/svg"
   xmlns="http://www.w3.org/2000/svg"
   xmlns:xlink="http://www.w3.org/1999/xlink"
   version="1.0"
   width="32"
   height="32"
   id="svg3286">
  <defs
     id="defs3288">
    <linearGradient
       id="linearGradient8838">
      <stop
         id="stop8840"
         style="stop-color:#000000;stop-opacity:1"
         offset="0" />
      <stop
         id="stop8842"
         style="stop-color:#000000;stop-opacity:0"
         offset="1" />
    </linearGradient>
    <radialGradient
       cx="62.625"
       cy="4.625"
       r="10.625"
       fx="62.625"
       fy="4.625"
       id="radialGradient2457"
       xlink:href="#linearGradient8838"
       gradientUnits="userSpaceOnUse"
       gradientTransform="matrix(1,0,0,0.341176,0,3.047059)" />
    <linearGradient
       id="linearGradient3533">
      <stop
         id="stop3535"
         style="stop-color:#b0cce6;stop-opacity:1"
         offset="0" />
      <stop
         id="stop3545"
         style="stop-color:#83acd5;stop-opacity:1"
         offset="1" />
    </linearGradient>
    <linearGradient
       x1="15.372947"
       y1="5.0471625"
       x2="15.372947"
       y2="22.599676"
       id="linearGradient2514"
       xlink:href="#linearGradient3533"
       gradientUnits="userSpaceOnUse"
       gradientTransform="matrix(0.6581432,0,0,0.6456688,-0.2105253,1.4174878)" />
    <linearGradient
       id="linearGradient3266">
      <stop
         id="stop3268"
         style="stop-color:#387ab8;stop-opacity:1"
         offset="0" />
      <stop
         id="stop3270"
         style="stop-color:#387ab8;stop-opacity:0"
         offset="1" />
    </linearGradient>
    <linearGradient
       x1="33.686768"
       y1="35.773647"
       x2="37.039948"
       y2="29.856804"
       id="linearGradient2511"
       xlink:href="#linearGradient3266"
       gradientUnits="userSpaceOnUse"
       gradientTransform="matrix(0.6896129,0,0,0.6765422,-0.550714,-0.540855)" />
    <linearGradient
       id="linearGradient3276">
      <stop
         id="stop3278"
         style="stop-color:#83acd5;stop-opacity:1"
         offset="0" />
      <stop
         id="stop3280"
         style="stop-color:#83acd5;stop-opacity:0"
         offset="1" />
    </linearGradient>
    <linearGradient
       x1="31.226292"
       y1="34.600941"
       x2="34.96563"
       y2="26.842505"
       id="linearGradient2509"
       xlink:href="#linearGradient3276"
       gradientUnits="userSpaceOnUse"
       gradientTransform="matrix(0.6896129,0,0,0.6765422,-0.550714,-0.540855)" />
    <linearGradient
       id="linearGradient4873">
      <stop
         id="stop4875"
         style="stop-color:#ffffff;stop-opacity:1"
         offset="0" />
      <stop
         id="stop4877"
         style="stop-color:#ffffff;stop-opacity:0"
         offset="1" />
    </linearGradient>
    <linearGradient
       x1="21.628975"
       y1="2.1102102"
       x2="22.245434"
       y2="43.366352"
       id="linearGradient2506"
       xlink:href="#linearGradient4873"
       gradientUnits="userSpaceOnUse"
       gradientTransform="matrix(0.6581432,0,0,0.6456688,-0.2105253,1.4174878)" />
    <linearGradient
       id="linearGradient3319">
      <stop
         id="stop3321"
         style="stop-color:#ffffff;stop-opacity:0"
         offset="0" />
      <stop
         id="stop3323"
         style="stop-color:#ffffff;stop-opacity:0.14383562"
         offset="0.57424062" />
      <stop
         id="stop3325"
         style="stop-color:#ffffff;stop-opacity:0"
         offset="1" />
    </linearGradient>
    <linearGradient
       x1="33.386703"
       y1="41.887085"
       x2="39.686337"
       y2="28.50532"
       id="linearGradient2503"
       xlink:href="#linearGradient3319"
       gradientUnits="userSpaceOnUse"
       gradientTransform="matrix(0.6581432,0,0,0.6456688,-0.2105253,1.4174878)" />
  </defs>
  <g
     id="layer1">
    <path
       d="M 73.25,4.625 A 10.625,3.625 0 1 1 52,4.625 A 10.625,3.625 0 1 1 73.25,4.625 z"
       transform="matrix(1.5058705,0,0,1.7833051,-78.30514,17.121916)"
       id="path8836"
       style="opacity:0.3;fill:url(#radialGradient2457);fill-opacity:1;fill-rule:evenodd;stroke:none;stroke-width:0.99999988;stroke-linecap:butt;stroke-linejoin:round;marker:none;marker-start:none;marker-mid:none;marker-end:none;stroke-miterlimit:4;stroke-dasharray:none;stroke-dashoffset:0;stroke-opacity:1;visibility:visible;display:inline;overflow:visible" />
    <path
       d="M 15.881612,22.347698 C 12.50599,22.311249 9.7194314,19.152277 9.7567511,15.855308 C 9.7940708,12.55834 12.820693,9.7226824 16.196318,9.7591338 C 17.826501,9.776736 19.40598,10.290444 20.576789,11.398481 L 17.539557,14.5 L 28.585966,14.5 C 28.585966,14.5 28.585966,3.4530057 28.585966,3.4530057 L 25.674507,6.2986686 C 23.117265,3.8333529 20.161226,2.5415734 16.387061,2.5008198 C 8.7092155,2.4179123 2.5857595,8.5538313 2.500874,16.052778 C 2.4159888,23.551723 8.5251494,29.417095 16.202995,29.5"
       id="path3372"
       style="fill:url(#linearGradient2514);fill-opacity:1;stroke:#387ab8;stroke-width:1;stroke-linecap:butt;stroke-linejoin:round;stroke-miterlimit:4;stroke-dasharray:none;stroke-opacity:1" />
    <path
       d="M 15.906287,29.498745 C 22.326665,29.568071 29.511535,24.701321 29.499981,16.28873 L 22.700995,16.23681 C 22.575826,19.668547 18.908619,22.472326 15.860239,22.344536"
       id="path3453"
       style="fill:url(#linearGradient2509);fill-opacity:1;stroke:url(#linearGradient2511);stroke-width:1;stroke-linecap:butt;stroke-linejoin:miter;stroke-miterlimit:4;stroke-dasharray:none;stroke-opacity:1" />
    <path
       d="M 15.860511,23.472474 C 12.120632,23.418833 8.6449739,20.165718 8.6410406,15.915991 C 8.6376844,12.265112 12.494277,8.5353109 16.234155,8.5889513 C 18.077543,8.6153906 20.678982,9.6669523 22.067716,11.207313 L 20.110374,13.40035 L 27.5,13.414079 C 27.5,13.414079 27.5,6 27.5,6 L 25.65582,7.7650799 C 23.213195,5.0921295 20.42198,3.614564 16.601246,3.5770554 C 9.2928753,3.5053085 3.6908253,8.9551927 3.6343504,16.12502 C 3.8130096,24.145928 9.7829663,28.228244 16.203098,28.365403"
       id="path3370"
       style="opacity:0.4;fill:none;fill-opacity:1;stroke:url(#linearGradient2506);stroke-width:1.19300008;stroke-linecap:butt;stroke-linejoin:miter;stroke-miterlimit:4;stroke-dasharray:none;stroke-opacity:1" />
    <path
       d="M 15.953257,28.225811 C 21.43744,28.225811 28.2223,25.006473 28.291392,16.309907 L 24.214712,16.170343 C 24.219703,19.699124 19.449338,23.387933 15.612847,23.499526"
       id="path2557"
       style="fill:none;fill-opacity:1;stroke:url(#linearGradient2503);stroke-width:1.19295728;stroke-linecap:butt;stroke-linejoin:round;stroke-miterlimit:4;stroke-dasharray:none;stroke-opacity:1" />
  </g>
</svg>
